X:5179
T:Polka. GHW.027
O:england
M:2/4
L:1/16
Q:100
S:George H.Watson,MS,Swanton Abbott,Norfolk,1850-1880
R:Polka
A:Norfolk
K:F
a2ef g2f2|e2d2 d2^cd|b2ce a2g2|g2f2 fefg|
a2ef g2f2|e2d2 d2^cd|b2d2 cega|f2f2f2z2:|
|:G2e2 cBce|a2g2 g^fg2|f2^c2 e3d|d2B2 dcBA|
G2e2 cBce|a2g2 g^fg2|a2G2e3d|c2c2 c4:|
|:f4 e3d|d2c2 c4|cd^de a2g2|fg^ga b2a2|
f4 e3d|d2c2 A4|cdef a3g|f2f2 f4:|
